X: 10000
T:Dillane's Hornpipe 
B:CRE3.220 (CornphÃÂÃÂÃÂÃÂ­opa UÃÂÃÂÃÂÃÂ­ DhuilleÃÂÃÂÃÂÃÂ¡in)
F:file ID: cre.3/043dill_H
R:hornpipe
L:1/8
Q:150
M:C
K:D
z2|(3FED FA d2d2|(3Bcd ef g2g2|fafd (3efg ed|c2A2 ABAG|
(3FED FA d2d2|(3Bcd ef g2g2|fafd (3efg ec|d2d2 d2:|
fg|afdf afdf|bgeg bgeg|afdf afdf|e2A2 ABAG|
(3FED FA d2d2|(3Bcd ef g2g2|fafd (3efg ec|d2d2 d2:|

%%%

